.local/share/icons/Gruvbox-Plus-Dark/panel/16/QMPlay2-panel.svg

<svg xmlns="http://www.w3.org/2000/svg" width="16" height="16" version="1.1">
 <defs>
  <style id="current-color-scheme" type="text/css">
   .ColorScheme-Text { color:#ebdbb2; } .ColorScheme-Highlight { color:#458588; }
  </style>
 </defs>
 <path style="fill:currentColor" class="ColorScheme-Text" d="M 2.6289062 1 A 1.5912092 1.4213061 0 0 0 1 2.4199219 L 1 8 L 1 13.580078 A 1.5912092 1.4213061 0 0 0 3.3867188 14.808594 L 8.796875 12.019531 L 14.205078 9.2304688 A 1.5912092 1.4213061 0 0 0 14.205078 6.7695312 L 8.796875 3.9804688 L 3.3867188 1.1894531 A 1.5912092 1.4213061 0 0 0 2.6289062 1 z M 2.4707031 2.9667969 L 2.4785156 2.9707031 C 2.4753756 2.9691831 2.4739731 2.9704308 2.4707031 2.96875 L 2.4707031 2.9667969 z M 3 3.2402344 L 7.8789062 5.7578125 L 12.228516 8 L 7.8789062 10.242188 L 3 12.757812 L 3 8 L 3 3.2402344 z"/>
</svg>

<svg width="16" height="16" version="1.1" xmlns="http://www.w3.org/2000/svg">
  <defs>
    <style id="current-color-scheme" type="text/css">.ColorScheme-Text { color:#ebdbb2; } .ColorScheme-Highlight { color:#458588; } .ColorScheme-NeutralText { color:#fe8019; } .ColorScheme-PositiveText { color:#689d6a; } .ColorScheme-NegativeText { color:#fb4934; }</style>
  </defs>
  <path class="ColorScheme-Text" d="m2.629 1a1.591 1.421 0 0 0-1.629 1.42v5.58 5.58a1.591 1.421 0 0 0 2.387 1.229l10.82-5.578a1.591 1.421 0 0 0 0-2.461l-5.408-2.789-5.41-2.791a1.591 1.421 0 0 0-0.7578-0.1895zm-0.1582 1.967 0.007812 0.003906c-0.00314-0.00152-0.004542-2.723e-4 -0.007812-0.001953v-0.001953zm0.5293 0.2734 4.879 2.518 4.35 2.242-9.229 4.758v-4.758-4.76z" fill="currentColor"/>
</svg>
